SharedPackages/Infrastructure/DesignResourcesKitIcons/Sources/DesignResourcesKitIcons/DesignSystemImages.xcassets/Color/24px/Accessibility-Color-24.imageset/Accessibility-Color-24.svg

<svg width="24" height="24" viewBox="0 0 24 24" fill="none" xmlns="http://www.w3.org/2000/svg">
<rect x="2" y="2" width="20" height="20" rx="10" fill="#4397E0"/>
<path d="M16.8902 8.84021C17.3461 8.77961 17.7657 9.1002 17.8267 9.55603C17.8875 10.0121 17.5668 10.4315 17.1109 10.4926L13.9024 10.9192C13.7674 10.9372 13.6666 11.0523 13.6666 11.1884V13.2808C13.6666 13.3072 13.6704 13.3335 13.678 13.3589L14.7984 17.0931C14.9306 17.5338 14.6804 17.9988 14.2398 18.1312C13.7991 18.2633 13.335 18.0133 13.2027 17.5726L12.0395 13.6954C12.0344 13.6782 12.0185 13.6664 12.0006 13.6664C11.9826 13.6664 11.9668 13.6782 11.9616 13.6954L10.7984 17.5726C10.6661 18.0132 10.202 18.2632 9.76131 18.1312C9.32048 17.999 9.07047 17.534 9.20272 17.0931L10.3221 13.3598C10.3297 13.3345 10.3336 13.3082 10.3336 13.2818V11.1884C10.3336 11.0523 10.2328 10.9372 10.0978 10.9192L6.89022 10.4926C6.43412 10.4316 6.11358 10.0122 6.1744 9.55603C6.23549 9.10012 6.6549 8.77941 7.11092 8.84021L11.9647 9.4868C11.9885 9.48997 12.0126 9.48997 12.0364 9.4868L16.8902 8.84021ZM12.0006 5.33337C12.8289 5.33354 13.5006 6.00505 13.5006 6.83337C13.5006 7.6617 12.8289 8.33321 12.0006 8.33337C11.1721 8.33337 10.5006 7.6618 10.5006 6.83337C10.5006 6.00495 11.1721 5.33337 12.0006 5.33337Z" fill="white"/>
<path fill-rule="evenodd" clip-rule="evenodd" d="M12 2C17.5228 2 22 6.47715 22 12C22 17.5228 17.5228 22 12 22C6.47715 22 2 17.5228 2 12C2 6.47715 6.47715 2 12 2ZM12 3.25C7.16751 3.25 3.25 7.16751 3.25 12C3.25 16.8325 7.16751 20.75 12 20.75C16.8325 20.75 20.75 16.8325 20.75 12C20.75 7.16751 16.8325 3.25 12 3.25Z" fill="#045EB2"/>
</svg>

<svg fill="none" viewBox="0 0 24 24" xmlns="http://www.w3.org/2000/svg">
  <path fill="#7295F6" d="M2 12C2 6.477 6.477 2 12 2s10 4.477 10 10-4.477 10-10 10S2 17.523 2 12Z"/>
  <path fill="#fff" d="M10.798 17.573a.833.833 0 0 1-1.596-.479l1.596.479Zm6.134-8.737a.833.833 0 0 1 .22 1.65l-.042.007-3.208.427a.271.271 0 0 0-.236.27v2.092c0 .026.004.052.012.078l1.12 3.734a.833.833 0 0 1-1.596.479l-1.164-3.878a.04.04 0 0 0-.077 0l-1.163 3.878-.798-.24-.798-.239 1.12-3.734a.271.271 0 0 0 .011-.078V11.19c0-.137-.1-.252-.236-.27l-3.207-.427-.043-.007a.834.834 0 0 1 .22-1.65l.043.005 4.854.647a.27.27 0 0 0 .072 0l4.854-.647.042-.005ZM12 5.333a1.5 1.5 0 1 1 0 3 1.5 1.5 0 0 1 0-3Z"/>
  <path fill="url(#Accessibility-Color-24_svg__a)" d="M12 2c5.523 0 10 4.477 10 10s-4.477 10-10 10S2 17.523 2 12 6.477 2 12 2Zm0 1.25a8.75 8.75 0 1 0 0 17.5 8.75 8.75 0 0 0 0-17.5Zm.071.834a2.75 2.75 0 0 1 2.467 3.81l2.187-.292.017-.003.016-.001.043-.005.015-.001.014-.002a2.083 2.083 0 0 1 2.228 1.75l.007.051.006.052a2.084 2.084 0 0 1-1.69 2.272l-.017.003-.016.003-.042.006-.015.003-.016.002-2.358.314v1.092l1.079 3.597.014.052a2.083 2.083 0 0 1-4.006 1.145L12 17.917l-.004.015a2.084 2.084 0 0 1-3.991-1.197l1.078-3.596v-1.093l-2.358-.314-.015-.002-.016-.003-.042-.006-.016-.003-.016-.003a2.084 2.084 0 0 1-1.685-2.324l.008-.051a2.083 2.083 0 0 1 2.176-1.753l.051.003.015.002.014.001.043.005.017.001.017.003 2.186.291A2.75 2.75 0 0 1 12 4.083l.071.001Zm-2.869 13.01a.833.833 0 0 0 1.597.479l-1.597-.479Zm8.624-7.537a.833.833 0 0 0-.893-.72l-.043.004-4.854.647a.272.272 0 0 1-.072 0L7.11 8.84l-.042-.005a.833.833 0 0 0-.22 1.65l.042.007 3.208.427a.272.272 0 0 1 .235.27v2.113a.269.269 0 0 1-.011.058l-1.12 3.733.798.24.799.239 1.163-3.878a.04.04 0 0 1 .077 0l1.163 3.878a.833.833 0 0 0 .996.57l.042-.011a.834.834 0 0 0 .559-1.038l-1.12-3.734a.268.268 0 0 1-.011-.058l-.001-.02V11.19c0-.137.1-.252.236-.27l3.207-.427.043-.007a.834.834 0 0 0 .673-.93ZM12 5.333a1.5 1.5 0 0 0-1.5 1.5v.04a1.5 1.5 0 0 0 3 0v-.04a1.5 1.5 0 0 0-1.5-1.5Z"/>
  <defs>
    <linearGradient id="Accessibility-Color-24_svg__a" x1="12" x2="12" y1="2" y2="22" gradientUnits="userSpaceOnUse">
      <stop stop-color="#557FF3"/>
      <stop offset="1" stop-color="#2B55CA"/>
    </linearGradient>
  </defs>
</svg>
